; G-Code generated by Simplify3D(R) Version 4.1.2
; Jul 26, 2020 at 1:46:27 PM
; Settings Summary
;   processName,Process1
;   applyToModels,neck_test
;   profileName,petg_neck_test
;   profileVersion,2020-05-13 19:05:02
;   baseProfile,LulzBot TAZ 6 Single(3)
;   printMaterial,
;   printQuality,
;   printExtruders,
;   extruderName,Primary Extruder
;   extruderToolheadNumber,0
;   extruderDiameter,0.5
;   extruderAutoWidth,1
;   extruderWidth,0.6
;   extrusionMultiplier,1
;   extruderUseRetract,1
;   extruderRetractionDistance,1
;   extruderExtraRestartDistance,0
;   extruderRetractionZLift,0
;   extruderRetractionSpeed,360
;   extruderUseCoasting,0
;   extruderCoastingDistance,0.2
;   extruderUseWipe,0
;   extruderWipeDistance,5
;   primaryExtruder,0
;   layerHeight,0.22
;   topSolidLayers,4
;   bottomSolidLayers,0
;   perimeterOutlines,0
;   printPerimetersInsideOut,1
;   startPointOption,3
;   startPointOriginX,0
;   startPointOriginY,0
;   sequentialIslands,1
;   spiralVaseMode,0
;   firstLayerHeightPercentage,100
;   firstLayerWidthPercentage,100
;   firstLayerUnderspeed,1
;   useRaft,0
;   raftExtruder,0
;   raftTopLayers,3
;   raftBaseLayers,2
;   raftOffset,3
;   raftSeparationDistance,0.14
;   raftTopInfill,100
;   aboveRaftSpeedMultiplier,0.3
;   useSkirt,0
;   skirtExtruder,0
;   skirtLayers,2
;   skirtOutlines,4
;   skirtOffset,0
;   usePrimePillar,0
;   primePillarExtruder,999
;   primePillarWidth,12
;   primePillarLocation,7
;   primePillarSpeedMultiplier,1
;   useOozeShield,0
;   oozeShieldExtruder,999
;   oozeShieldOffset,2
;   oozeShieldOutlines,1
;   oozeShieldSidewallShape,1
;   oozeShieldSidewallAngle,30
;   oozeShieldSpeedMultiplier,1
;   infillExtruder,0
;   internalInfillPattern,Grid
;   externalInfillPattern,Rectilinear
;   infillPercentage,0
;   outlineOverlapPercentage,25
;   infillExtrusionWidthPercentage,100
;   minInfillLength,1
;   infillLayerInterval,1
;   internalInfillAngles,45,-45
;   overlapInternalInfillAngles,1
;   externalInfillAngles,0,90
;   generateSupport,0
;   supportExtruder,0
;   supportInfillPercentage,40
;   supportExtraInflation,0
;   supportBaseLayers,0
;   denseSupportExtruder,0
;   denseSupportLayers,0
;   denseSupportInfillPercentage,70
;   supportLayerInterval,1
;   supportHorizontalPartOffset,0.3
;   supportUpperSeparationLayers,1
;   supportLowerSeparationLayers,1
;   supportType,0
;   supportGridSpacing,1
;   maxOverhangAngle,45
;   supportAngles,0
;   temperatureName,Primary Extruder,Heated Bed,Wipe Temp,Probe Temp
;   temperatureNumber,0,0,1,2
;   temperatureSetpointCount,1,1,1,1
;   temperatureSetpointLayers,1,1,1,1
;   temperatureSetpointTemperatures,240,80,180,165
;   temperatureStabilizeAtStartup,1,1,1,1
;   temperatureHeatedBed,0,1,0,0
;   fanLayers,1,2
;   fanSpeeds,0,60
;   blipFanToFullPower,1
;   adjustSpeedForCooling,0
;   minSpeedLayerTime,25
;   minCoolingSpeedSlowdown,20
;   increaseFanForCooling,0
;   minFanLayerTime,45
;   maxCoolingFanSpeed,100
;   increaseFanForBridging,0
;   bridgingFanSpeed,100
;   use5D,1
;   relativeEdistances,0
;   allowEaxisZeroing,1
;   independentExtruderAxes,0
;   includeM10123,0
;   stickySupport,1
;   applyToolheadOffsets,0
;   gcodeXoffset,0
;   gcodeYoffset,0
;   gcodeZoffset,0
;   overrideMachineDefinition,1
;   machineTypeOverride,0
;   strokeXoverride,280
;   strokeYoverride,280
;   strokeZoverride,250
;   originOffsetXoverride,0
;   originOffsetYoverride,0
;   originOffsetZoverride,0
;   homeXdirOverride,-1
;   homeYdirOverride,-1
;   homeZdirOverride,-1
;   flipXoverride,1
;   flipYoverride,-1
;   flipZoverride,1
;   toolheadOffsets,0,0|0,0|0,0|0,0|0,0|0,0
;   overrideFirmwareConfiguration,1
;   firmwareTypeOverride,RepRap (Marlin/Repetier/Sprinter)
;   GPXconfigOverride,r2
;   baudRateOverride,250000
;   overridePrinterModels,1
;   printerModelsOverride,LulzBot_TAZ6.stl
;   startingGcode,;This G-Code has been generated specifically for the LulzBot TAZ 6 with standard extruder,M73 P0 ; clear GLCD progress bar,M75 ; start GLCD timer,G26 ; clear potential 'probe fail' condition,M107 ; disable fans,M420 S0 ; disable previous leveling matrix,G90 ; absolute positioning,M82 ; set extruder to absolute mode,G92 E0 ; set extruder position to 0,M140 S[bed0_temperature] ; start bed heating up,M109 R[extruder1_temperature]; soften filament before homing Z,G28 ; Home all axis,G1 E-30 F100 ; retract filament,M109 R[extruder1_temperature] ; wait for extruder to reach wiping temp,M104 R[extruder2_temperature] ; set probe temp to cool now - dont wait,G1 X-17 Y100 F3000           ; move above wiper pad,G1 Z1                        ; push nozzle into wiper,G1 X-19 Y95 F1000            ; slow wipe,G1 X-17 Y90 F1000            ; slow wipe,G1 X-19 Y85 F1000            ; slow wipe,G1 X-17 Y90 F1000            ; slow wipe,G1 X-19 Y80 F1000            ; slow wipe,G1 X-17 Y95 F1000            ; slow wipe,G1 X-19 Y75 F2000            ; fast wipe,G1 X-17 Y85 F2000            ; fast wipe,G1 X-19 Y80 F2000            ; fast wipe,G1 X-17 Y70 F2000            ; fast wipe,G1 X-19 Y75 F2000            ; fast wipe,G1 X-17 Y95 F1000            ; slow wipe,G1 X-19 Y90 F1000            ; slow wipe,G1 X-17 Y85 F1000            ; slow wipe,G1 X-19 Y90 F1000            ; slow wipe,G1 X-17 Y80 F1000            ; slow wipe,G1 X-19 Y95 F1000            ; slow wipe,G1 X-17 Y75 F2000            ; fast wipe,G1 X-19 Y85 F2000            ; fast wipe,G1 X-17 Y80 F2000            ; fast wipe,G1 X-19 Y90 F2000            ; fast wipe,G1 X-17 Y85 F2000            ; fast wipe,G1 Z10                       ; raise extruder,M109 R[extruder2_temperature] ; wait for extruder to reach probe temp,G1 X-9 Y-9 ; move above first probe point,M204 S100 ; set probing acceleration,G29 ; start auto-leveling sequence,M420 S1 ; activate bed level matrix,M425 Z                 ; use measured Z backlash for compensation,M425 Z F0            ; turn off measured Z backlash compensation. (if activated in the quality settings, this command will automatically be ignored),M204 S500 ; restore standard acceleration,G1 X0 Y0 Z15 F5000 ; move up off last probe point,G4 S1 ; pause,M400 ; wait for moves to finish,M117 Heating... ; progress indicator message on LCD,M109 S[extruder0_temperature]; wait for extruder to reach printing temp,M190 R[bed0_temperature] ; wait for bed to reach printing temp,G1 Z2 E0 F75 ; prime tiny bit of filament into the nozzle,M117 TAZ 6 Printing... ; progress indicator message on LCD,
;   layerChangeGcode,
;   retractionGcode,
;   toolChangeGcode,
;   endingGcode,M400 ; wait for moves to finish,M104 S0 ; turn off extruder,M107 ; turn off fan,G1 Y0 F3000 ; move to cooling position,M117 Cooling please wait,M190 S50 ; cool down bed,G1 Y280 F3000 ; present finished print,M140 S0 ; turn off bed,M84 ; disable motors,M117 Print complete
;   exportFileFormat,gcode
;   celebration,0
;   celebrationSong,Random Song
;   postProcessing,
;   defaultSpeed,600
;   outlineUnderspeed,1
;   solidInfillUnderspeed,1
;   supportUnderspeed,0.8
;   rapidXYspeed,4800
;   rapidZspeed,1002
;   minBridgingArea,50
;   bridgingExtraInflation,0
;   bridgingExtrusionMultiplier,1
;   bridgingSpeedMultiplier,1
;   useFixedBridgingAngle,0
;   fixedBridgingAngle,0
;   applyBridgingToPerimeters,0
;   filamentDiameters,1.75|2.85|2.85|2.85|2.85|2.85
;   filamentPricesPerKg,46|46|46|46|46|46
;   filamentDensities,1.25|1.25|1.25|1.25|1.25|1.25
;   useMinPrintHeight,1
;   minPrintHeight,0
;   useMaxPrintHeight,1
;   maxPrintHeight,0.22
;   useDiaphragm,0
;   diaphragmLayerInterval,20
;   robustSlicing,1
;   mergeAllIntoSolid,0
;   onlyRetractWhenCrossingOutline,1
;   retractBetweenLayers,1
;   useRetractionMinTravel,0
;   retractionMinTravel,3
;   retractWhileWiping,0
;   onlyWipeOutlines,1
;   avoidCrossingOutline,0
;   maxMovementDetourFactor,3
;   toolChangeRetractionDistance,12
;   toolChangeExtraRestartDistance,-0.5
;   toolChangeRetractionSpeed,600
;   externalThinWallType,1
;   internalThinWallType,1
;   thinWallAllowedOverlapPercentage,20
;   singleExtrusionMinLength,0.4
;   singleExtrusionMinPrintingWidthPercentage,20
;   singleExtrusionMaxPrintingWidthPercentage,200
;   singleExtrusionEndpointExtension,0.2
;   horizontalSizeCompensation,0
G90
M82
M106 S0
;This G-Code has been generated specifically for the LulzBot TAZ 6 with standard extruder
M73 P0 ; clear GLCD progress bar
M75 ; start GLCD timer
G26 ; clear potential 'probe fail' condition
M107 ; disable fans
M420 S0 ; disable previous leveling matrix
G90 ; absolute positioning
M82 ; set extruder to absolute mode
G92 E0 ; set extruder position to 0
M140 S80 ; start bed heating up
M109 R180; soften filament before homing Z
G28 ; Home all axis
G1 E-30 F100 ; retract filament
M109 R180 ; wait for extruder to reach wiping temp
M104 R165 ; set probe temp to cool now - dont wait
G1 X-17 Y100 F3000           ; move above wiper pad
G1 Z1                        ; push nozzle into wiper
G1 X-19 Y95 F1000            ; slow wipe
G1 X-17 Y90 F1000            ; slow wipe
G1 X-19 Y85 F1000            ; slow wipe
G1 X-17 Y90 F1000            ; slow wipe
G1 X-19 Y80 F1000            ; slow wipe
G1 X-17 Y95 F1000            ; slow wipe
G1 X-19 Y75 F2000            ; fast wipe
G1 X-17 Y85 F2000            ; fast wipe
G1 X-19 Y80 F2000            ; fast wipe
G1 X-17 Y70 F2000            ; fast wipe
G1 X-19 Y75 F2000            ; fast wipe
G1 X-17 Y95 F1000            ; slow wipe
G1 X-19 Y90 F1000            ; slow wipe
G1 X-17 Y85 F1000            ; slow wipe
G1 X-19 Y90 F1000            ; slow wipe
G1 X-17 Y80 F1000            ; slow wipe
G1 X-19 Y95 F1000            ; slow wipe
G1 X-17 Y75 F2000            ; fast wipe
G1 X-19 Y85 F2000            ; fast wipe
G1 X-17 Y80 F2000            ; fast wipe
G1 X-19 Y90 F2000            ; fast wipe
G1 X-17 Y85 F2000            ; fast wipe
G1 Z10                       ; raise extruder
M109 R165 ; wait for extruder to reach probe temp
G1 X-9 Y-9 ; move above first probe point
M204 S100 ; set probing acceleration
G29 ; start auto-leveling sequence
M420 S1 ; activate bed level matrix
M425 Z               ; use measured Z backlash for compensation
M425 Z F0            ; turn off measured Z backlash compensation. (if activated in the quality settings
M204 S500 ; restore standard acceleration
G1 X0 Y0 Z15 F5000 ; move up off last probe point
G4 S1 ; pause
M400 ; wait for moves to finish
M117 Heating... ; progress indicator message on LCD
M109 S240; wait for extruder to reach printing temp
M190 R80 ; wait for bed to reach printing temp
G1 Z2 E0 F75 ; prime tiny bit of filament into the nozzle
M117 TAZ 6 Printing... ; progress indicator message on LCD
G0 Z-0.22
G92 Z0
; process Process1
; layer 1, Z = 0.220
T0
G92 E0.0000
G1 E-1.0000 F360
; feature external single extrusion
; tool H0.220 W1.020
G1 Z0.220 F1002
G1 X249.600 Y55.325 F4800
G1 E0.0000 F360
G92 E0.0000
; tool H0.220 W1.000
G1 X31.080 Y55.325 E19.9871 F600
; tool H0.220 W1.001
G1 X30.960 Y55.326 E19.9980
; tool H0.220 W1.014
G1 X30.840 Y55.338 E20.0092
; tool H0.220 W1.052
G1 X30.720 Y55.364 E20.0210
; tool H0.220 W1.119
G1 X30.600 Y55.405 E20.0340
; tool H0.220 W1.163
G1 X30.582 Y55.419 E20.0364
; tool H0.220 W1.124
G1 X30.541 Y55.538 E20.0493
; tool H0.220 W1.055
G1 X30.514 Y55.656 E20.0611
; tool H0.220 W1.015
G1 X30.501 Y55.775 E20.0722
; tool H0.220 W1.001
G1 X30.500 Y55.894 E20.0831
; tool H0.220 W1.000
G1 X30.500 Y63.616 E20.7894
; tool H0.220 W1.001
G1 X30.501 Y63.735 E20.8002
; tool H0.220 W1.015
G1 X30.514 Y63.854 E20.8113
; tool H0.220 W1.055
G1 X30.541 Y63.973 E20.8231
; tool H0.220 W1.124
G1 X30.582 Y64.091 E20.8360
; tool H0.220 W1.162
G1 X30.600 Y64.105 E20.8384
; tool H0.220 W1.119
G1 X30.720 Y64.146 E20.8514
; tool H0.220 W1.052
G1 X30.840 Y64.173 E20.8632
; tool H0.220 W1.014
G1 X30.960 Y64.185 E20.8744
; tool H0.220 W1.001
G1 X31.080 Y64.185 E20.8854
; tool H0.220 W1.000
G1 X248.880 Y64.185 E40.8065
G1 X249.000 Y64.185 E40.8175
; tool H0.220 W1.020
G1 X249.398 Y64.225 E40.8548
G92 E0.0000
G1 E-1.0000 F360
; tool H0.220 W1.001
G1 X249.497 Y64.435 F4800
G1 E0.0000 F360
G92 E0.0000
G1 X249.500 Y64.754 E0.0292 F600
; tool H0.220 W1.000
G1 X249.500 Y71.757 E0.6697
; tool H0.220 W1.001
G1 X249.499 Y71.875 E0.6806
; tool H0.220 W1.016
G1 X249.486 Y71.994 E0.6917
; tool H0.220 W1.056
G1 X249.459 Y72.113 E0.7034
; tool H0.220 W1.124
G1 X249.417 Y72.231 E0.7164
; tool H0.220 W1.163
G1 X249.400 Y72.245 E0.7187
; tool H0.220 W1.119
G1 X249.280 Y72.286 E0.7317
; tool H0.220 W1.052
G1 X249.160 Y72.312 E0.7435
; tool H0.220 W1.014
G1 X249.040 Y72.324 E0.7547
; tool H0.220 W1.001
G1 X248.920 Y72.325 E0.7657
; tool H0.220 W1.000
G1 X31.120 Y72.325 E20.6868
G1 X31.000 Y72.325 E20.6978
; tool H0.220 W1.020
G1 X30.801 Y72.345 E20.7164
; tool H0.220 W1.106
G1 X30.586 Y72.411 E20.7392
G1 X30.520 Y72.626 E20.7620
; tool H0.220 W1.020
G1 X30.500 Y72.825 E20.7806
; tool H0.220 W1.000
G1 X30.500 Y72.944 E20.7915
G1 X30.500 Y80.566 E21.4887
G1 X30.500 Y80.685 E21.4996
; tool H0.220 W1.020
G1 X30.520 Y80.884 E21.5182
; tool H0.220 W1.106
G1 X30.586 Y81.100 E21.5410
G1 X30.801 Y81.166 E21.5638
; tool H0.220 W1.020
G1 X31.000 Y81.185 E21.5824
; tool H0.220 W1.000
G1 X31.120 Y81.185 E21.5934
G1 X248.920 Y81.185 E41.5146
; tool H0.220 W1.001
G1 X249.040 Y81.186 E41.5255
; tool H0.220 W1.014
G1 X249.160 Y81.198 E41.5367
; tool H0.220 W1.052
G1 X249.280 Y81.225 E41.5485
; tool H0.220 W1.119
G1 X249.400 Y81.265 E41.5615
; tool H0.220 W1.163
G1 X249.417 Y81.279 E41.5639
; tool H0.220 W1.124
G1 X249.459 Y81.397 E41.5768
; tool H0.220 W1.056
G1 X249.486 Y81.516 E41.5885
; tool H0.220 W1.016
G1 X249.499 Y81.635 E41.5996
; tool H0.220 W1.001
G1 X249.500 Y81.754 E41.6105
; tool H0.220 W1.000
G1 X249.500 Y88.757 E42.2510
; tool H0.220 W1.001
G1 X249.499 Y88.875 E42.2619
; tool H0.220 W1.016
G1 X249.486 Y88.994 E42.2730
; tool H0.220 W1.056
G1 X249.459 Y89.113 E42.2847
; tool H0.220 W1.124
G1 X249.417 Y89.231 E42.2977
; tool H0.220 W1.163
G1 X249.400 Y89.245 E42.3000
; tool H0.220 W1.119
G1 X249.280 Y89.286 E42.3130
; tool H0.220 W1.052
G1 X249.160 Y89.312 E42.3248
; tool H0.220 W1.014
G1 X249.040 Y89.324 E42.3360
; tool H0.220 W1.001
G1 X248.920 Y89.325 E42.3470
; tool H0.220 W1.000
G1 X31.120 Y89.325 E62.2681
G1 X31.000 Y89.325 E62.2791
; tool H0.220 W1.020
G1 X30.801 Y89.345 E62.2977
; tool H0.220 W1.106
G1 X30.586 Y89.411 E62.3205
G1 X30.520 Y89.626 E62.3433
; tool H0.220 W1.020
G1 X30.500 Y89.825 E62.3619
; tool H0.220 W1.000
G1 X30.500 Y89.944 E62.3728
G1 X30.500 Y97.566 E63.0700
G1 X30.500 Y97.685 E63.0809
; tool H0.220 W1.020
G1 X30.520 Y97.884 E63.0995
; tool H0.220 W1.106
G1 X30.586 Y98.100 E63.1223
G1 X30.801 Y98.166 E63.1451
; tool H0.220 W1.020
G1 X31.000 Y98.185 E63.1637
; tool H0.220 W1.000
G1 X31.120 Y98.185 E63.1747
G1 X248.920 Y98.185 E83.0959
; tool H0.220 W1.001
G1 X249.040 Y98.186 E83.1068
; tool H0.220 W1.014
G1 X249.160 Y98.198 E83.1180
; tool H0.220 W1.052
G1 X249.280 Y98.225 E83.1298
; tool H0.220 W1.119
G1 X249.400 Y98.265 E83.1428
; tool H0.220 W1.163
G1 X249.417 Y98.279 E83.1452
; tool H0.220 W1.124
G1 X249.459 Y98.397 E83.1581
; tool H0.220 W1.056
G1 X249.486 Y98.516 E83.1698
; tool H0.220 W1.016
G1 X249.499 Y98.635 E83.1809
; tool H0.220 W1.001
G1 X249.500 Y98.754 E83.1918
; tool H0.220 W1.000
G1 X249.500 Y105.757 E83.8323
; tool H0.220 W1.001
G1 X249.499 Y105.875 E83.8432
; tool H0.220 W1.016
G1 X249.486 Y105.994 E83.8543
; tool H0.220 W1.056
G1 X249.459 Y106.113 E83.8661
; tool H0.220 W1.124
G1 X249.417 Y106.231 E83.8790
; tool H0.220 W1.163
G1 X249.400 Y106.245 E83.8813
; tool H0.220 W1.119
G1 X249.280 Y106.286 E83.8943
; tool H0.220 W1.052
G1 X249.160 Y106.312 E83.9061
; tool H0.220 W1.014
G1 X249.040 Y106.324 E83.9173
; tool H0.220 W1.001
G1 X248.920 Y106.325 E83.9283
; tool H0.220 W1.000
G1 X31.120 Y106.325 E103.8494
G1 X31.000 Y106.325 E103.8604
; tool H0.220 W1.020
G1 X30.801 Y106.345 E103.8790
; tool H0.220 W1.106
G1 X30.586 Y106.411 E103.9018
G1 X30.520 Y106.626 E103.9246
; tool H0.220 W1.020
G1 X30.500 Y106.825 E103.9432
